X: 8
T: The Road To Lisdoonvarna
R: reel
M: 4/4
L: 1/8
K: Dmix
|: DzAG ABcA | GEEE cEGE | DzAG ABcA |1 B/^c/dAG FFEF :|2 B/^c/dAG FDFA |||: dzfd ^cAAA | BGGG B/^c/dec | dfed ^cAAA | BzAG FDFA |d3e ^cAAA | BGGG ^cdec | dzed ^cAAA | B/^c/dAG FGEF ||


Tune 249	Setting 12965

